!!!COM: Edouard Lalo
!!!CNT: Francais
!!!TXO: Francais
!!!OTL: A une Fleur
!!!OPR: Six Me/lodies pour voix de contralto
!!!ONM: No. 1
!!!LYR: Alfred de Musset
!!!ENC: Jacob Pegg
!!!YOR: Romantic French Song 1830-1870, David Tunley, ed., New !!!YOR: York: Garland Publishing, Inc., 1995, vol. 3
!!!ODT: 1870/
!!NB: Vocal melody and text only encoded.
!!NB: First instance of melodic material only encoded.
**kern	**silbe
*clef G2	*
*k[f#c#g#]	*
*M6/8	*
=5	=5
4r	.
8r	.
{8c#	{Que
8d	me
8e	veut~
=6	=6
[4e	~tu,
16e]	|
16r	.
8c#	che\-
8d	-re
8e	fleu-
=7	=7
4e}	-rette,}
{8d	{ai-
8c#	-mi-
8c#	-able et
8e	char-
=8	=8
8B	-mant
8B	sou-
8f#	-ve-
(8f#	-nir?
[4e	|
=9	=9
4.e])}	|}
8r	.
{8c#	{De-
8e	-mi
=10	=10
4e	morte
8d	et
8c#	de-
8c#	-mi
8e	co-
=11	=11
4e	-quet-
8d}	-te,}
8r	.
{8c#	{Jus-
8e	-qu'a\
=12	=12
4a	moi
8c#	qui
8c#	te
8e#	fait
8d#	ve-
=13	=13
4c#;}	-nir?}
8r	.
{8dn	{Sous
8en	ce
8f#	ca-
=14	=14
(4f#	-chet
8e)	|
8cc#	en-
8b	-ve-
8a	-lop-
=15	=15
[4g#	-pe/-
8g#]}	-e,}
{8f#	{Tu
8f#	viens
8a	de
=16	=16
(4a	fai-
8e)	|
8fn	-re un
8fn	long
8a	che-
=17	=17
[4.a	-min,
16a]}	|}
16r	.
{8b-	{qu'as~
8e	~tu
=18	=18
[8fn	vu?
16fn]	|
16r	.
8cn	que
8cn	t'a
8cn	dit
8cn	la
=19	=19
4cn}	main}
{8d	{qui
8e	sur
8fn	le
8gn	buis-
=20	=20
8a	-son
8gn	t'a
8fn	cou-
[4.e	-pe/-
=21	=21
4.e_	-e?
8e]}	|}
8r	.
8r	.
=22	=22
4.r	.
4.r	.
=23	=23
2.r;	.
=24	=24
4r	.
8r	.
4r	.
{8fn	{N'es~
=25	=25
4fn	~tu
8b-	qu'une
4a-	her-
8g-	-be
=26	=26
(8g-	de/s-
8fn)	|
8e-	-se/-
8d-	-che/-
8d-}	-e,}
{8cn	{qui
=27	=27
8B-	vient
8B-	a-
8e-	-che-
8e-	-ver
8d-	de
8cn	mou-
=28	=28
4cn;}	-rir?}
8r	.
{4d-	{Ou
8e-	ton
=29	=29
4fn	sein,
8fn	pre^t
8e-	a\
8d-	re-
8e-	-fleu-
=30	=30
4fn}	-rir,}
{8fn	{Ren-
4fn	-fer-
8gn	-me~
=31	=31
4.a-	~t~il
8a-	u-
8b-	-ne
8cc#	pen-
=32	=32
[2.dd-	-se/-
=33	=33
4.dd-]}	-e?}
4r	.
8r;	.
=34	=34
2.r	.
=35	=35
4r	.
{8c#	{S'il
8c#	en
8d	est
8e	ain-
=36	=36
4.e	-si,
(8c#	par-
8d)	|
8e	-le
=37	=37
[8e	bas,
16e]}	|}
16r	.
{8d	{mys-
8c#	-te/-
8c#	-ri-
8e	-eu-
=38	=38
8B	-se
8B	mes-
8f#	-sa-
(8f#	-ge\-
[4e)	|
=39	=39
4e]}	-re!}
8r	.
{8c#	{S'il
8c#	n'en
8e	est
=40	=40
(4e	rien,
16d)	|
16r	.
8c#	ne
8c#	re/-
8e	-ponds~
=41	=41
(4e	~pas;
16d)}	|}
16r	.
{8c#	{Dors
8c#	sur
8d	mon
=42	=42
4.c#	coeur,
8c#	frai^che
8e	et
8a	le/-
=43	=43
[4.a	-ge\-
4.a;]}	-re!}
*-	*-
